X: 5319
T: Bruce's First Mistake
R: jig
M: 6/8
K: Ddorian
|:~D3 CDE|~F3 EFA|~c3 BAG|ECD EDA|
~D3 CDE|~F3 EFA|~c3 BAG|1 ECD EDA:|2 ECD EDc||
|:~d3 edd|~f3 fed|~c3 BAG|ECD EDc|
~d3 edd|~f3 fed|~c3 BAG|1 ECD EDc:|2 ECD EDA||

